docs/static/docs/start.svg

<svg width="202" height="34" viewBox="0 0 202 34" fill="none" xmlns="http://www.w3.org/2000/svg">
<g clip-path="url(#clip0_21_40)">
<rect width="202" height="34" fill="url(#paint0_linear_21_40)" fill-opacity="0.3"/>
<path d="M25.4641 14.9859L24.7869 16.9957C24.6908 17.2735 24.7536 17.6953 24.924 17.9337L25.9286 19.3435C26.571 20.2456 26.1879 20.9921 25.0742 20.9929L23.189 21.0004C22.8699 21.0016 22.4736 21.2238 22.3013 21.4944L21.3985 22.9348C20.683 24.0743 19.8362 23.9444 19.5068 22.646L19.0507 20.8384C18.9681 20.5121 18.6312 20.1752 18.3011 20.0889L16.4943 19.6335C15.1996 19.3079 15.0702 18.4531 16.2054 17.7418L17.6458 16.839C17.9165 16.6667 18.1387 16.2704 18.1399 15.9513L18.1474 14.066C18.1527 12.9561 18.8951 12.5696 19.7968 13.2116L21.2069 14.2167C21.4416 14.3833 21.8633 14.4461 22.1412 14.35L24.1509 13.6727C25.2431 13.3074 25.8336 13.898 25.4645 14.9863" fill="#FFE100"/>
<path d="M39.2783 -1.22708L40.2205 0.672908C40.349 0.937375 40.6916 1.19113 40.9807 1.23932L42.688 1.52573C43.7801 1.70936 44.0371 2.50811 43.2501 3.29616L41.9224 4.63456C41.6975 4.86101 41.5744 5.2984 41.644 5.61158L42.0241 7.26852C42.3239 8.58014 41.6333 9.08713 40.4823 8.40187L38.8816 7.44626C38.5925 7.27387 38.116 7.27387 37.8215 7.44626L36.2219 8.40187C35.0762 9.08713 34.3803 8.57425 34.6801 7.26852L35.0602 5.61158C35.1298 5.2984 35.0066 4.86101 34.7818 4.63456L33.4541 3.29616C32.673 2.50758 32.9246 1.70936 34.0162 1.52573L35.724 1.23932C36.0078 1.19113 36.3504 0.937375 36.4789 0.672908L37.4211 -1.22708C37.935 -2.25764 38.7702 -2.25764 39.2788 -1.22708" fill="#FFE100"/>
<path d="M137.858 1.40828L138.056 3.51973C138.082 3.81268 138.311 4.17237 138.563 4.32096L140.054 5.20017C141.008 5.76299 140.962 6.60078 139.945 7.05446L138.226 7.82816C137.935 7.95899 137.663 8.3232 137.616 8.64053L137.377 10.3236C137.186 11.6556 136.36 11.8814 135.531 10.8292L134.379 9.36337C134.171 9.09883 133.726 8.92808 133.39 8.9835L131.554 9.30237C130.238 9.53155 129.773 8.80333 130.52 7.69176L131.469 6.28109C131.646 6.01365 131.688 5.56119 131.559 5.26919L130.799 3.54389C130.353 2.52777 130.874 1.87274 131.959 2.09251L133.656 2.43713C133.938 2.49383 134.349 2.37971 134.563 2.17886L136.124 0.742734C136.973 -0.0351992 137.753 0.264095 137.858 1.40847" fill="#FFE100"/>
<path d="M204.998 17.4469L205.012 19.5676C205.011 19.8617 205.208 20.2399 205.447 20.41L206.855 21.4158C207.757 22.0596 207.637 22.8902 206.585 23.2535L204.805 23.8744C204.503 23.9794 204.201 24.3185 204.126 24.6305L203.741 26.2864C203.436 27.5967 202.593 27.7496 201.859 26.6292L200.839 25.0685C200.655 24.7869 200.226 24.578 199.886 24.6039L198.03 24.7615C196.699 24.8752 196.299 24.1091 197.141 23.067L198.209 21.7444C198.408 21.4934 198.489 21.0463 198.387 20.7442L197.78 18.9592C197.424 17.908 198 17.3009 199.061 17.6144L200.722 18.1056C200.998 18.1867 201.417 18.1088 201.649 17.9274L203.328 16.6328C204.242 15.9318 204.993 16.2979 204.998 17.4471" fill="#FFE100"/>
<path d="M94.4136 9.31328L93.1486 13.0673C92.969 13.5863 93.0864 14.374 93.4046 14.8195L95.2812 17.4528C96.4812 19.1378 95.7656 20.5322 93.6853 20.5337L90.1639 20.5478C89.5678 20.5499 88.8275 20.965 88.5057 21.4706L86.8193 24.1611C85.4828 26.2895 83.901 26.047 83.2859 23.6216L82.4338 20.2452C82.2796 19.6356 81.6503 19.0063 81.0337 18.8451L77.6587 17.9944C75.2404 17.3863 74.9986 15.7897 77.1192 14.461L79.8097 12.7746C80.3153 12.4528 80.7304 11.7125 80.7325 11.1164L80.7466 7.59501C80.7565 5.52177 82.1432 4.79982 83.8275 5.99907L86.4615 7.87644C86.8999 8.18757 87.6876 8.30495 88.2066 8.12534L91.9606 6.86033C94.0006 6.17797 95.1037 7.28106 94.4143 9.31399" fill="#FFE100"/>
<path d="M120.414 0.31328L119.149 4.06731C118.969 4.58633 119.086 5.37404 119.405 5.81952L121.281 8.45279C122.481 10.1378 121.766 11.5322 119.685 11.5337L116.164 11.5478C115.568 11.5499 114.827 11.965 114.506 12.4706L112.819 15.1611C111.483 17.2895 109.901 17.047 109.286 14.6216L108.434 11.2452C108.28 10.6356 107.65 10.0063 107.034 9.84508L103.659 8.99443C101.24 8.38632 100.999 6.78967 103.119 5.46102L105.81 3.77457C106.315 3.45283 106.73 2.71249 106.732 2.1164L106.747 -1.40499C106.757 -3.47823 108.143 -4.20018 109.828 -3.00093L112.461 -1.12356C112.9 -0.812434 113.688 -0.695054 114.207 -0.87466L117.961 -2.13967C120.001 -2.82203 121.104 -1.71894 120.414 0.313987" fill="#FFE100"/>
<path d="M168.414 5.31328L167.149 9.06731C166.969 9.58633 167.086 10.374 167.405 10.8195L169.281 13.4528C170.481 15.1378 169.766 16.5322 167.685 16.5337L164.164 16.5478C163.568 16.5499 162.827 16.965 162.506 17.4706L160.819 20.1611C159.483 22.2895 157.901 22.047 157.286 19.6216L156.434 16.2452C156.28 15.6356 155.65 15.0063 155.034 14.8451L151.659 13.9944C149.24 13.3863 148.999 11.7897 151.119 10.461L153.81 8.77457C154.315 8.45283 154.73 7.71249 154.732 7.1164L154.747 3.59501C154.757 1.52177 156.143 0.799818 157.828 1.99907L160.461 3.87644C160.9 4.18757 161.688 4.30495 162.207 4.12534L165.961 2.86033C168.001 2.17797 169.104 3.28106 168.414 5.31399" fill="#FFE100"/>
<path d="M198.414 -1.68672L197.149 2.06731C196.969 2.58633 197.086 3.37404 197.405 3.81952L199.281 6.45279C200.481 8.13782 199.766 9.53224 197.685 9.53365L194.164 9.54779C193.568 9.54991 192.827 9.96499 192.506 10.4706L190.819 13.1611C189.483 15.2895 187.901 15.047 187.286 12.6216L186.434 9.24515C186.28 8.63563 185.65 8.0063 185.034 7.84508L181.659 6.99443C179.24 6.38632 178.999 4.78967 181.119 3.46102L183.81 1.77457C184.315 1.45283 184.73 0.712493 184.732 0.116402L184.747 -3.40499C184.757 -5.47823 186.143 -6.20018 187.828 -5.00093L190.461 -3.12356C190.9 -2.81243 191.688 -2.69505 192.207 -2.87466L195.961 -4.13967C198.001 -4.82203 199.104 -3.71894 198.414 -1.68601" fill="#FFE100"/>
<path d="M15.4136 -1.68672L14.1486 2.06731C13.969 2.58633 14.0864 3.37404 14.4046 3.81952L16.2812 6.45279C17.4812 8.13782 16.7656 9.53224 14.6853 9.53365L11.1639 9.54779C10.5678 9.54991 9.82746 9.96499 9.50572 10.4706L7.81927 13.1611C6.48284 15.2895 4.90104 15.047 4.28586 12.6216L3.4338 9.24515C3.27965 8.63563 2.65032 8.0063 2.03372 7.84508L-1.3413 6.99443C-3.7596 6.38632 -4.00143 4.78967 -1.88082 3.46102L0.809723 1.77457C1.3153 1.45283 1.73038 0.712493 1.7325 0.116402L1.74664 -3.40499C1.75654 -5.47823 3.14317 -6.20018 4.8275 -5.00093L7.46148 -3.12356C7.89988 -2.81243 8.6876 -2.69505 9.20662 -2.87466L12.9606 -4.13967C15.0006 -4.82203 16.1037 -3.71894 15.4143 -1.68601" fill="#FFE100"/>
<path d="M54.1712 -2.27175L57.9252 -1.00674C58.4442 -0.827134 59.232 -0.944515 59.6774 -1.26271L62.3107 -3.13937C63.9957 -4.33933 65.3901 -3.62374 65.3916 -1.54343L65.4057 1.97796C65.4078 2.57405 65.8229 3.31439 66.3285 3.63612L69.019 5.32257C71.1474 6.659 70.9049 8.2408 68.4795 8.85599L65.1031 9.70805C64.4935 9.8622 63.8642 10.4915 63.703 11.1081L62.8523 14.4831C62.2442 16.9014 60.6476 17.1433 59.3189 15.0227L57.6325 12.3321C57.3107 11.8265 56.5704 11.4115 55.9743 11.4093L52.4529 11.3952C50.3797 11.3853 49.6577 9.99867 50.857 8.31434L52.7343 5.68037C53.0455 5.24196 53.1629 4.45425 52.9833 3.93523L51.7182 0.1812C51.0359 -1.8588 52.139 -2.96189 54.1719 -2.27246" fill="#FFE100"/>
</g>
<defs>
<linearGradient id="paint0_linear_21_40" x1="101" y1="0" x2="101" y2="34" gradientUnits="userSpaceOnUse">
<stop stop-color="#FFE100"/>
<stop offset="1" stop-color="#FFFB00" stop-opacity="0"/>
</linearGradient>
<clipPath id="clip0_21_40">
<rect width="202" height="34" fill="white"/>
</clipPath>
</defs>
</svg>

<svg xmlns="http://www.w3.org/2000/svg" width="202" height="34" fill="none" viewBox="0 0 202 34"><g clip-path="url(#a)"><path fill="url(#b)" fill-opacity=".3" d="M0 0h202v34H0z"/><path fill="#ffe100" d="m25.464 14.986-.677 2.01c-.096.277-.033.7.137.938l1.005 1.41c.642.902.259 1.648-.855 1.649L23.19 21c-.32.002-.715.224-.888.494l-.902 1.44c-.716 1.14-1.563 1.01-1.892-.288l-.456-1.808c-.083-.326-.42-.663-.75-.75l-1.807-.454c-1.294-.326-1.424-1.18-.289-1.892l1.44-.903c.271-.172.494-.569.495-.888l.007-1.885c.006-1.11.748-1.496 1.65-.854l1.41 1.005c.235.166.656.23.934.133l2.01-.677c1.092-.366 1.683.225 1.314 1.313M39.278-1.227l.943 1.9c.128.264.47.518.76.566l1.707.287c1.092.183 1.35.982.562 1.77l-1.328 1.339c-.224.226-.348.663-.278.977l.38 1.657c.3 1.311-.39 1.818-1.542 1.133l-1.6-.956c-.29-.172-.766-.172-1.06 0l-1.6.956c-1.146.685-1.842.172-1.542-1.133l.38-1.657c.07-.314-.053-.751-.278-.977l-1.328-1.339c-.781-.788-.53-1.587.562-1.77l1.708-.287c.284-.048.626-.302.755-.566l.942-1.9c.514-1.03 1.35-1.03 1.858 0M137.858 1.408l.198 2.112c.026.293.255.652.507.801l1.491.88c.954.562.908 1.4-.109 1.853l-1.719.774c-.291.131-.563.495-.61.813l-.239 1.683c-.191 1.332-1.017 1.557-1.846.505l-1.152-1.466c-.208-.264-.653-.435-.989-.38l-1.836.32c-1.316.229-1.781-.5-1.034-1.611l.949-1.41c.177-.268.219-.72.09-1.013l-.76-1.725c-.446-1.016.075-1.671 1.16-1.451l1.697.344c.282.057.693-.057.907-.258l1.561-1.436c.849-.778 1.629-.479 1.734.665M204.998 17.447l.014 2.12c-.001.295.196.673.435.843l1.408 1.006c.902.644.782 1.474-.27 1.837l-1.78.621c-.302.105-.604.445-.679.757l-.385 1.655c-.305 1.31-1.148 1.464-1.882.343l-1.02-1.56c-.184-.282-.613-.491-.953-.465l-1.856.158c-1.331.113-1.731-.653-.889-1.695l1.068-1.323c.199-.25.28-.698.178-1l-.607-1.785c-.356-1.051.22-1.658 1.281-1.345l1.661.492c.276.08.695.003.927-.179l1.679-1.294c.914-.701 1.665-.335 1.67.814M94.414 9.313l-1.265 3.754c-.18.52-.063 1.307.256 1.752l1.876 2.634c1.2 1.685.485 3.08-1.596 3.08l-3.521.015c-.596.002-1.337.417-1.658.923l-1.687 2.69c-1.336 2.128-2.918 1.886-3.533-.54l-.852-3.376c-.154-.61-.784-1.239-1.4-1.4l-3.375-.85c-2.419-.609-2.66-2.205-.54-3.534l2.69-1.686c.506-.322.921-1.062.924-1.659l.014-3.521c.01-2.073 1.396-2.795 3.08-1.596l2.635 1.877c.438.312 1.226.429 1.745.25L91.96 6.86c2.04-.682 3.143.421 2.453 2.454M120.414.313l-1.265 3.754c-.18.52-.063 1.307.256 1.753l1.876 2.633c1.2 1.685.485 3.08-1.596 3.08l-3.521.015c-.596.002-1.337.417-1.658.923l-1.687 2.69c-1.336 2.129-2.918 1.886-3.533-.54l-.852-3.376c-.154-.61-.784-1.239-1.4-1.4l-3.375-.85c-2.419-.609-2.66-2.205-.54-3.534l2.691-1.686c.505-.322.92-1.063.922-1.659l.015-3.521c.01-2.073 1.396-2.795 3.081-1.596l2.633 1.877c.439.312 1.227.429 1.746.25l3.754-1.266c2.04-.682 3.143.421 2.453 2.454M168.414 5.313l-1.265 3.754c-.18.52-.063 1.307.256 1.752l1.876 2.634c1.2 1.685.485 3.08-1.596 3.08l-3.521.015c-.596.002-1.337.417-1.658.923l-1.687 2.69c-1.336 2.128-2.918 1.886-3.533-.54l-.852-3.376c-.154-.61-.784-1.239-1.4-1.4l-3.375-.85c-2.419-.609-2.66-2.205-.54-3.534l2.691-1.686c.505-.322.92-1.063.922-1.659l.015-3.521c.01-2.073 1.396-2.795 3.081-1.596l2.633 1.877c.439.312 1.227.429 1.746.25l3.754-1.266c2.04-.682 3.143.421 2.453 2.454M198.414-1.687l-1.265 3.754c-.18.52-.063 1.307.256 1.753l1.876 2.633c1.2 1.685.485 3.08-1.596 3.08l-3.521.015c-.596.002-1.337.417-1.658.923l-1.687 2.69c-1.336 2.129-2.918 1.886-3.533-.54l-.852-3.376c-.154-.61-.784-1.239-1.4-1.4l-3.375-.85c-2.419-.609-2.66-2.205-.54-3.534l2.691-1.686c.505-.322.92-1.063.922-1.659l.015-3.521c.01-2.073 1.396-2.795 3.081-1.596l2.633 1.877c.439.312 1.227.429 1.746.25l3.754-1.266c2.04-.682 3.143.421 2.453 2.454M15.414-1.687l-1.265 3.754c-.18.52-.063 1.307.256 1.753l1.876 2.633c1.2 1.685.485 3.08-1.596 3.08l-3.521.015c-.596.002-1.337.417-1.658.923l-1.687 2.69c-1.336 2.129-2.918 1.886-3.533-.54l-.852-3.376c-.154-.61-.784-1.239-1.4-1.4l-3.375-.85c-2.419-.609-2.66-2.205-.54-3.534L.81 1.775c.506-.322.921-1.063.923-1.659l.015-3.521c.01-2.073 1.396-2.795 3.08-1.596l2.634 1.877c.439.312 1.227.429 1.746.25L12.96-4.14c2.04-.682 3.143.421 2.453 2.454M54.171-2.272l3.754 1.265c.52.18 1.307.062 1.752-.256l2.634-1.876c1.685-1.2 3.08-.485 3.08 1.596l.015 3.521c.002.596.417 1.336.922 1.658l2.691 1.687c2.128 1.336 1.886 2.918-.54 3.533l-3.376.852c-.61.154-1.239.784-1.4 1.4l-.85 3.375c-.609 2.418-2.205 2.66-3.534.54l-1.687-2.69c-.321-.507-1.062-.921-1.658-.924l-3.521-.014c-2.073-.01-2.795-1.396-1.596-3.08l1.877-2.635c.311-.438.429-1.226.25-1.745L51.717.181c-.682-2.04.421-3.143 2.454-2.453"/></g><defs><linearGradient id="b" x1="101" x2="101" y1="0" y2="34" gradientUnits="userSpaceOnUse"><stop stop-color="#ffe100"/><stop offset="1" stop-color="#fffb00" stop-opacity="0"/></linearGradient><clipPath id="a"><path fill="#fff" d="M0 0h202v34H0z"/></clipPath></defs></svg>
